X:1
T:Title
%%score ( 1 2 ) { 3 | 4 }
L:1/8
Q:1/4=107
M:6/8
K:Bb
V:1 treble nm="Grand Piano, Soprano"
V:2 treble 
V:3 bass nm="Choir Pad, Awake, Awake, O Earth!"
V:4 bass 
V:1
 [DF] [DB]2 [Ec] [Fd]2 | [Ec] [DB]2- [DB]2- [DB]/ z/ | [DF] [EG]2 [GB] [FA]2 | %3
w: By~John~Henry~Showalter * * *|||
 [EG] [DF]2- [DF]2- [DF]/ z/ | [DF] [EG]2 [EA] [FB]2 | [Fc] [Fd]2- [Fd]2- [Fd]/ z/ | %6
w: |||
 [Fd] [Fc]2 [=EG] [EA]2 | [=EB] [_Ec]2- [Ec]2- [Ec]/ z/ | [DF] [DB]2 [Ec] [Fd]2 | %9
w: |||
 [Ec] [DB]2- [DB]2- [DB]/ z/ | [DF] [EG]2 [GB] [FA]2 | [EG] [DF]2- [DF]2- [DF]/ z/ | %12
w: |||
 [DF] [FB]2 [Fc] [Fd]2 | [Fe] [Ff]2- [Ff]2- [Ff]/ z/ | [Ge] [Fd]2 [FB]AB | %15
w: |||
 [Fc] [FB]2- [FB]2- [FB]/ z/ | [Fd] [Fe]2- [Fe]3 | [Fe] [Fd]2- [Fd]2- [Fd]/ z/ | %18
w: |||
 [Fd] [Fc]2 [=EG] [EA]2 | [=EB] [Fc]2- [Fc]2- [Fc]/ z/ | F [FB]2 [Fc] [Fd]2 | %21
w: |||
 [Fe] [Ff]2- [Ff]2- [Ff]/ z/ | [Ge] [Fd]2 [FB]AB | [Fc] [FB]2- [FB]3- | [FB]3 z3 |] %25
w: ||||
V:2
 x6 | x6 | x6 | x6 | x6 | x6 | x6 | x6 | x6 | x6 | x6 | x6 | x6 | x6 | z3 z F2 | x6 | x6 | x6 | %18
 x6 | x6 | x6 | x6 | z3 z F2 | x6 | x6 |] %25
V:3
 B, F,2 A, B,2 | F, F,2- F,2- F,/ z/ | B, B,2 B, B,2 | B, B,2- B,2- B,/ z/ | B, B,2 C B,2 | %5
 A, B,2- B,2- B,/ z/ | B, A,2 C C2 | B, A,2- A,2- A,/ z/ | B, F,2 A, B,2 | F, F,2- F,2- F,/ z/ | %10
 B, B,2 B, B,2 | B, B,2- B,2- B,/ z/ | B, B,2 A, B,2 | C D2- D2- D/ z/ | B, B,2 DCD | %15
 E D2- D2- D/ z/ | B, C2 C[K:bass]A,B, | C B,2 B, B,2 | B, A,2 C C2 | B, A,2- A,2- A,/ z/ | %20
 C B,2 A, B,2 | C D2- D2- D/ z/ | B, B,2 DCD | E D2- D3- | D3 z3 |] %25
V:4
 B,, B,,2 B,, B,,2 | B,, B,,2- B,,2- B,,/ z/ | B,, E,2 E, E,2 | E, B,,2- B,,2- B,,/ z/ | %4
 B,, E,2 E, D,2 | .F,3 z3 | B,, C,2 C, C,2 | C, F,2- F,2- F,/ z/ | B,, B,,2 B,, B,,2 | %9
 B,, B,,2- B,,2- B,,/ z/ | B,, E,2 E, E,2 | E, B,,2- B,,2- B,,/ z/ | B,, D,2 .F,3 | %13
 B, B,2- B,2- B,/ z/ | E, F,2 F, F,2 | F, B,,2- B,,2- B,,/ z/ | z F,2 F,F,G, | .A,3 B,, B,,2 | %18
 B,, C,2 C, C,2 | C, F,2- F,2- F,/ z/ | E, D,2 .F,3 | B, B,2- B,2- B,/ z/ | E, F,2 F, F,2 | %23
 F, B,,2- B,,3- | B,,3 z3 |] %25

